X:1
T:Title
%%score ( 1 2 ) ( 3 4 )
L:1/8
Q:1/4=91
M:3/4
K:Ab
V:1 treble nm="Grand Piano, Soprano"
V:2 treble 
V:3 bass nm="Choir Pad, Millford, C. C. Case, 1881"
V:4 bass 
V:1
 [CE]2 [Ec]3 [DB] | [CA][CE] [DG]2 [DF]2 | [DF]2 [Fd]3 [Ec] | [DB]F A2 G2 | E2 [Ec]3 [DB] | %5
w: By~Charles~Clinton~Case,~1881 * *|||||
 [CA][CE] [DG]2 [DF]2 | [DF]2 [CE]3 [CE] | [DF][DG] [CA]4 | [CE]2 [EB]3 [Ec] | %9
w: ||||
 [Ed][EG] [EA]>B [Ec]2 | [=Ec]2 [Fc]3 [Fc] | [A=d][Af] [Ge]4 | [Ed]2 [Ec]3 [DB] | %13
w: ||||
 [CA][CE] [DG]2 [DF]2 | [DF]2 [CE]3 [Ed] | [Ec][EB] [CA]4- | [CA]4 z2 |] %17
w: ||||
V:2
 x6 | x6 | x6 | z2 E4 | x6 | x6 | x6 | x6 | x6 | x6 | x6 | x6 | x6 | x6 | x6 | x6 | x6 |] %17
V:3
 [A,,A,]2 [A,,A,]3 [A,,A,] | [A,,A,][A,,A,] [D,A,]2 [D,A,]2 | [D,A,]2 [B,,B,]3 [C,=A,] | %3
 [D,B,][=D,_C] =C2 B,2 | [E,G,]2 [A,,A,]3 [A,,A,] | [A,,A,][A,,A,] [D,A,]2 [D,A,]2 | %6
 [D,A,]2 [E,A,]3 [E,A,] | [E,B,][E,B,] [A,,A,]4 | A,2 [E,G,]3 [E,A,] | [E,B,][E,D] [A,C]>D [A,E]2 | %10
 [G,C]>B, [F,A,]3 [F,A,] | [B,,F,][B,,B,] [E,B,]4 | [E,G,]2 [A,,A,]3 [A,,A,] | %13
 [A,,A,][A,,A,] [D,A,]2 [D,A,]2 | [D,A,]2 [E,A,]3 [E,B,] | [E,A,][E,G,] [A,,A,]4- | [A,,A,]4 z2 |] %17
V:4
 x6 | x6 | x6 | z2 E,4 | x6 | x6 | x6 | x6 | x6 | x6 | x6 | x6 | x6 | x6 | x6 | x6 | x6 |] %17

